X: 8529
T: Crehan's Banbh's
R: reel
M: 4/4
K: Edorian
BE3 EDB,E|DB,A,B, DEGA|BEED EFGA|BAGB A2GA|
BE3 EDB,E|DB,A,B, DEGA|B3A GBdB|AFDF E3A||
(3Bcd ef febe|fdad fdad|(3Bcd ef febe|fedf efed|
(3Bcd ef ggeg|fedf edBA|FEFA dcdB|AFDF E2FA||

